!!!COM: Beethoven
!!!OTL: 6 Variationen uber "Nel cor piu non mi sento" von G. Paisiello
!!!Variation: Variation 6 d
**function	**kern	**kern	**kern
*M6/8	*M6/8	*staff2	*staff1
*G:	*G:	*clefF4	*clefG2
*	*tb16	*k[f#]	*k[f#]
*	*	*M6/8	*M6/8
*	*	*G:	*G:
*	*	*tb16	*tb16
8D	8V	8r	16ddLL
.	.	.	16dJJ
=	=	=135	=135
4.D	4.V65	16FF#LL	16aLL 16cc
.	.	16D	16d
.	.	16C#	16c#
.	.	16D	16d
.	.	16FF#	16a 16cc
.	.	16DJJ	16dJJ
4.T	4.I	16GGLL	16gLL 16b
.	.	16D	16d
.	.	16C#	16c#
.	.	16D	16d
.	.	16GG	16g 16b
.	.	16DJJ	16dJJ
=	=	=136	=136
4.T	4.V6	16DDLL	16f#LL 16a
.	.	16D	16d
.	.	16C#	16c#
.	.	16D	16d
.	.	16C#	16c#
.	.	16DJJ	16dJJ
4.T	4.V43	16CLL	16f#LL
.	.	16D	16d
.	.	16BB	16g
.	.	16D	16d
.	.	16AA	16f# 16a
.	.	16DJJ	16dJJ
=	=	=137	=137
4.T	4.I	16GGLL	16bLL
.	.	16G	16d
.	.	16D	16a#
.	.	16G	16d
.	.	16GG	16b
.	.	16GJJ	16dJJ
4.T	4.V43	16AALL	16ccLL
.	.	16A	16d
.	.	16D	16b
.	.	16A	16d
.	.	16AA	16cc
.	.	16AJJ	16dJJ
=	=	=138	=138
4.T	4.I6	16BBLL	16ddLL
.	.	16B	16d
.	.	16G	16cc#
.	.	16B	16d
.	.	16BB	16dd
.	.	16BJJ	16dJJ
4.P	4.IV	16CLL	16eeLL
.	.	16c	16e
.	.	16G	16dd#
.	.	16c	16e
.	.	16C	16ee
.	.	16cJJ	16eJJ
=	=	=139	=139
4.D	4.I64	16DLL	16eeLL
.	.	16B	16d
.	.	16G	16g
.	.	16B	16d
.	.	16D	16g
.	.	16BJJ	16dJJ
4.D	4.V7	16DLL	16gLL
.	.	16c	16d
.	.	16F#	16b
.	.	16c	16d
.	.	16D	16a
.	.	16cJJ	16dJJ
=	=	=140	=140
4.T	4.I	4G	16gLL
.	.	.	16d
.	.	.	16B
.	.	.	16d
.	.	8r	16B
.	.	.	16GJJ
4.T	4.V	4r	16F#LL
.	.	.	16A
.	.	.	16d
.	.	.	16A
.	.	8D	16F#
.	.	.	16AJJ
=	=	=141	=141
4.T	4.I	4BB	16GLL
.	.	.	16B
.	.	.	16d
.	.	.	16B
.	.	8BB	16G
.	.	.	16BJJ
4.T	4.V43	4AA	16F#LL
.	.	.	16c
.	.	.	16d
.	.	.	16c
.	.	8AA	16F#
.	.	.	16cJJ
=	=	=142	=142
4.T	4.I	4GG	16GLL
.	.	.	16B
.	.	.	16d
.	.	.	16B
.	.	8r	16G
.	.	.	16BJJ
*-	*-	*-	*-
